archdroid-icon-theme/Archdroid-Amber/mimetypes/scalable/image-gif.svg

<svg fill="#f44336" height="48" viewBox="0 0 48 48" width="48" xmlns="http://www.w3.org/2000/svg"><path d="m10 6c-2.21 0-4 1.79-4 4v28c0 2.21 1.79 4 4 4h28c2.21 0 4-1.79 4-4v-28c0-2.21-1.79-4-4-4zm20.207031 2.810547c.142416 0 .28711.012695.433594.037109.146484.020345.311035.051107.494141.091797l-.152344 1.146485c-.08138-.016277-.173665-.028809-.275391-.041016-.097656-.012207-.202474-.019531-.316406-.019531-.321452 0-.563802.092285-.726563.27539-.158691.183106-.238281.445313-.238281.78711v.769531h1.34375v1.097656h-1.34375v5.50586h-1.482422v-5.50586h-1.007812v-1.097656h1.007812v-.769531c0-.728353.197103-1.290853.591797-1.685547.398763-.394694.955729-.591797 1.671875-.591797zm-5.896484.128906h1.484375v1.300781h-1.484375zm-4.839844 2.794922c.394694 0 .740072.086914 1.037109.257813.301107.166829.556153.407226.763672.724609l.146485-.859375h1.232422v6.603516c0 .850423-.262207 1.506835-.78711 1.970703-.524902.463867-1.270019.697265-2.234375.697265-.321452 0-.66862-.047038-1.042968-.140625-.37028-.089518-.706706-.210774-1.007813-.361328l.318359-1.166015c.244141.126139.513672.223795.806641.292968.297038.073242.600749.111328.914063.111328.537109 0 .929524-.115722 1.177734-.347656.24821-.227864.373047-.580566.373047-1.05664v-.677735c-.20752.264486-.453451.465169-.738281.603516-.280762.134277-.604493.203125-.970704.203125-.809733 0-1.444498-.296712-1.904296-.886719-.459799-.590007-.689454-1.363932-.689454-2.324219v-.128906c0-1.049805.229655-1.897949.689454-2.544922.459798-.646973 1.098144-.970703 1.916015-.970703zm4.839844.123047h1.484375v6.603516h-1.484375zm-4.460938 1.091797c-.508626 0-.886556.213379-1.134765.640625-.244141.427246-.367188.980631-.367188 1.660156v.128906c0 .606283.121257 1.092774.361328 1.458985.244141.362142.62028.542968 1.128907.542968.317382 0 .58317-.065104.798828-.195312.219726-.134277.396972-.326009.53125-.574219v-2.892578c-.138347-.240072-.317383-.428223-.53711-.5625-.215657-.138346-.476074-.207031-.78125-.207031zm9.150391 11.050781 9 12h-28l7-9 5 6.009766z" fill="#f44336"/></svg>

<svg fill="#f44336" height="48" version="1.1" viewBox="0 0 48 48" width="48" xmlns="http://www.w3.org/2000/svg"><path d="M10 6C7.79 6 6 7.79 6 10L6 38C6 40.21 7.79 42 10 42L38 42C40.21 42 42 40.21 42 38L42 10C42 7.79 40.21 6 38 6L10 6zM30.207031 8.810547C30.349447 8.810547 30.494141 8.823242 30.640625 8.847656 30.787109 8.868001 30.95166 8.898763 31.134766 8.939453L30.982422 10.085938C30.901042 10.069661 30.808757 10.057129 30.707031 10.044922 30.609375 10.032715 30.504557 10.025391 30.390625 10.025391 30.069173 10.025391 29.826823 10.117676 29.664062 10.300781 29.505371 10.483887 29.425781 10.746094 29.425781 11.087891L29.425781 11.857422 30.769531 11.857422 30.769531 12.955078 29.425781 12.955078 29.425781 18.460938 27.943359 18.460938 27.943359 12.955078 26.935547 12.955078 26.935547 11.857422 27.943359 11.857422 27.943359 11.087891C27.943359 10.359538 28.140462 9.797038 28.535156 9.402344 28.933919 9.00765 29.490885 8.810547 30.207031 8.810547zM24.310547 8.939453L25.794922 8.939453 25.794922 10.240234 24.310547 10.240234 24.310547 8.939453zM19.470703 11.734375C19.865397 11.734375 20.210775 11.821289 20.507812 11.992188 20.808919 12.159017 21.063965 12.399414 21.271484 12.716797L21.417969 11.857422 22.650391 11.857422 22.650391 18.460938C22.650391 19.311361 22.388184 19.967773 21.863281 20.431641 21.338379 20.895508 20.593262 21.128906 19.628906 21.128906 19.307454 21.128906 18.960286 21.081868 18.585938 20.988281 18.215658 20.898763 17.879232 20.777507 17.578125 20.626953L17.896484 19.460938C18.140625 19.587077 18.410156 19.684733 18.703125 19.753906 19.000163 19.827148 19.303874 19.865234 19.617188 19.865234 20.154297 19.865234 20.546712 19.749512 20.794922 19.517578 21.043132 19.289714 21.167969 18.937012 21.167969 18.460938L21.167969 17.783203C20.960449 18.047689 20.714518 18.248372 20.429688 18.386719 20.148926 18.520996 19.825195 18.589844 19.458984 18.589844 18.649251 18.589844 18.014486 18.293132 17.554688 17.703125 17.094889 17.113118 16.865234 16.339193 16.865234 15.378906L16.865234 15.25C16.865234 14.200195 17.094889 13.352051 17.554688 12.705078 18.014486 12.058105 18.652832 11.734375 19.470703 11.734375zM24.310547 11.857422L25.794922 11.857422 25.794922 18.460938 24.310547 18.460938 24.310547 11.857422zM19.849609 12.949219C19.340983 12.949219 18.963053 13.162598 18.714844 13.589844 18.470703 14.01709 18.347656 14.570475 18.347656 15.25L18.347656 15.378906C18.347656 15.985189 18.468913 16.47168 18.708984 16.837891 18.953125 17.200033 19.329264 17.380859 19.837891 17.380859 20.155273 17.380859 20.421061 17.315755 20.636719 17.185547 20.856445 17.05127 21.033691 16.859538 21.167969 16.611328L21.167969 13.71875C21.029622 13.478678 20.850586 13.290527 20.630859 13.15625 20.415202 13.017904 20.154785 12.949219 19.849609 12.949219zM29 24L38 36 10 36 17 27 22 33.009766 29 24z"/></svg>
